svg/u1faf6_1f3fc.svg

<svg viewBox="0 0 128 128" xmlns="http://www.w3.org/2000/svg" xmlns:xlink="http://www.w3.org/1999/xlink">
  <linearGradient id="hand_1_" gradientUnits="userSpaceOnUse" x1="35.4746" x2="-0.2643" y1="70.1994" y2="96.7244">
    <stop offset="0.1685" stop-color="#E0BB95"/>
    <stop offset="0.8723" stop-color="#CCA47A"/>
  </linearGradient>
  <path id="hand" d="M3.23,104.13c0,0,7.73-10.22,16.38-11.43c8.65-1.21,22.02,1.21,26.95,3.35 c4.93,2.14,9.58,7.53,11.53,8c1.95,0.47,3.91-1.3,3.91-1.3c3.16-11.26-10.12-17.02-14.98-19.07C22.75,73.45,27.45,56.39,29.07,52.7 c4.29-9.77,14.88-10.33,14.88-10.33s6.84,0.05,9.34,4.14c1.51,2.47,2.7,5.41,3.75,7.22c1.39,2.38,7.07,3.25,7.07,0.04 c0-4.26-2.28-22.74-5.44-25.26s-14.39-10.9-17.33-9.95c-3.8,1.22-24.6,12.95-28.65,16.3S3.23,45.68,3.23,45.68V104.13z" fill="url(#hand_1_)"/>
  <linearGradient id="hand_2_" gradientTransform="matrix(-1 0 0 1 230.7787 0)" gradientUnits="userSpaceOnUse" x1="138.2533" x2="102.5144" y1="70.1994" y2="96.7244">
    <stop offset="0.1685" stop-color="#E0BB95"/>
    <stop offset="0.8723" stop-color="#CCA47A"/>
  </linearGradient>
  <path id="hand_5_" d="M124.77,104.13c0,0-7.73-10.22-16.38-11.43c-8.65-1.21-22.02,1.21-26.95,3.35 c-4.93,2.14-9.58,7.53-11.53,8c-1.95,0.47-3.91-1.3-3.91-1.3C62.84,91.5,76.12,85.73,80.98,83.68 c24.28-10.23,19.57-27.29,17.95-30.98c-4.29-9.77-14.88-10.33-14.88-10.33s-6.84,0.05-9.34,4.14c-1.51,2.47-2.7,5.41-3.75,7.22 c-1.39,2.38-7.07,3.25-7.07,0.04c0-4.26,2.28-22.74,5.44-25.26c3.16-2.51,14.39-10.9,17.33-9.95c3.8,1.22,24.6,12.95,28.65,16.3 c4.05,3.35,9.47,10.81,9.47,10.81V104.13z" fill="url(#hand_2_)"/>
  <path id="tone" d="M64.74,54.61l0.01-9.2c0-2.26-2.33-14.05-5.1-17.5c-1.78-2.2-6.57-5.24-11.33-8.15 c-0.88-0.54-1.61-0.98-2.07-1.29c-2.26-1.48-5.25-1.39-8.88,0.27c-7.89,3.6-21.81,12.19-24.22,14.13 c-4.08,3.28-7.07,7.53-9.92,11.68v4.34c3.34-4.12,8.06-10.68,11.8-13.69c2.27-1.82,16.03-10.3,23.58-13.74 c2.64-1.2,4.65-1.36,6-0.49c0.48,0.31,1.23,0.78,2.14,1.33c3.13,1.92,8.96,5.49,10.56,7.48c0.92,1.14,1.73,3.09,2.35,5.03 c-1.33-0.96-3.18-2.23-5-3.49c-2.19-1.51-4.26-2.94-5.17-3.63c-4.98-3.76-10.92-2.03-13.24-1.11c-2.47,0.98-9.99,6.17-11.43,7.05 c-2.41,1.48-3.9,3.39-3.99,3.85c-0.09,0.47,3.12-1.26,3.12-1.26c0.12-0.07,10.39-5.67,13.41-6.86c2.3-0.91,6.7-2.02,10.33,0.72 c0.96,0.73,3.06,2.17,5.27,3.7c2.59,1.79,5.52,3.81,6.4,4.53c0.99,0.81,2.08,1.21,2.59,5.35l1.07,8.93c0,1.72-1.93,1.86-2.56,1.64 c-3.81-1.36-4.01-4.47-4.45-5.86c-0.49-1.53-0.95-2.97-1.9-3.88c-1.82-1.74-8.8-3.86-11.49-3.5c-3.39,0.46-13.6,4.11-15.96,14.52 c-1.43,6.3,0.37,15.38,6.56,20.57c6.28,5.26,11.43,7.93,15.98,10.29l1.33,0.69c3.71,1.89,7.91,4.04,10.2,9.55 c0.72,1.72,0.82,4.12-0.38,5.38c-0.48,0.5-1.39,0.53-1.94,0.06c-5.92-4.97-15.77-11.51-32.83-10.92c-3.47,0.12-9.98,0.96-15.43-4.15 c-0.98-0.92-1.79-1.87-2.3-2.5c-0.19-0.23-0.57-0.12-0.58,0.18c-0.18,3.54,4.63,7.79,6.98,8.23c-4.89,2.45-8.9,6.59-11.01,9.06v4.54 c3.2-3.75,10.64-11.64,17.22-12.49c1.96,0.17,3.78,0.17,5.23,0.12c16.05-0.53,25.26,5.57,30.8,10.22c0.82,0.69,1.85,1.03,2.88,1.03 c1.17,0,2.33-0.44,3.16-1.31c2.2-2.3,2.08-5.98,0.98-8.61c-2.72-6.52-7.86-9.15-11.61-11.06l-1.31-0.68 c-4.63-2.4-9.41-4.88-15.44-9.93c-5.21-4.36-6.76-12.33-5.56-17.6C31.91,45.93,42.91,44,43.02,43.99c1.92-0.25,7.92,1.7,9.02,2.7 c0.99,0.9,1.55,5.32,4.06,7.74C60.64,58.81,64.74,56.01,64.74,54.61z" fill="#BA8F63"/>
  <path id="tone_9_" d="M63.26,54.61l-0.01-9.2c0-2.26,2.33-14.05,5.1-17.5c1.78-2.2,6.57-5.24,11.33-8.15 c0.88-0.54,1.61-0.98,2.07-1.29c2.26-1.48,5.25-1.39,8.88,0.27c7.89,3.6,21.81,12.19,24.22,14.13c4.08,3.28,7.07,7.53,9.92,11.68 v4.34c-3.34-4.12-8.06-10.68-11.8-13.69c-2.27-1.82-16.03-10.3-23.58-13.74c-2.64-1.2-4.65-1.36-6-0.49 c-0.48,0.31-1.23,0.78-2.14,1.33c-3.13,1.92-8.96,5.49-10.56,7.48c-0.92,1.14-1.73,3.09-2.35,5.03c1.33-0.96,3.18-2.23,5-3.49 c2.19-1.51,4.26-2.94,5.17-3.63c4.98-3.76,10.92-2.03,13.24-1.11c2.47,0.98,9.99,6.17,11.43,7.05c2.41,1.48,3.9,3.39,3.99,3.85 c0.09,0.47-3.12-1.26-3.12-1.26c-0.12-0.07-10.39-5.67-13.41-6.86c-2.3-0.91-6.7-2.02-10.33,0.72c-0.96,0.73-3.06,2.17-5.27,3.7 c-2.59,1.79-5.52,3.81-6.4,4.53c-0.99,0.81-2.08,1.21-2.59,5.35l-1.07,8.93c0,1.72,1.93,1.86,2.56,1.64 c3.81-1.36,4.01-4.47,4.45-5.86c0.49-1.53,0.95-2.97,1.9-3.88c1.82-1.74,8.8-3.86,11.49-3.5c3.39,0.46,13.6,4.11,15.96,14.52 c1.43,6.3-0.37,15.38-6.56,20.57c-6.28,5.26-11.43,7.93-15.98,10.29l-1.33,0.69c-3.71,1.89-7.91,4.04-10.2,9.55 c-0.72,1.72-0.82,4.12,0.38,5.38c0.48,0.5,1.39,0.53,1.94,0.06c5.92-4.97,15.77-11.51,32.83-10.92c3.47,0.12,9.98,0.96,15.43-4.15 c0.98-0.92,1.79-1.87,2.3-2.5c0.19-0.23,0.57-0.12,0.58,0.18c0.18,3.54-4.63,7.79-6.98,8.23c4.89,2.45,8.9,6.59,11.01,9.06v4.54 c-3.2-3.75-10.64-11.64-17.22-12.49c-1.96,0.17-3.78,0.17-5.23,0.12c-16.05-0.53-25.26,5.57-30.8,10.22 c-0.82,0.69-1.85,1.03-2.88,1.03c-1.17,0-2.33-0.44-3.16-1.31c-2.2-2.3-2.08-5.98-0.98-8.61c2.72-6.52,7.86-9.15,11.61-11.06 l1.31-0.68c4.63-2.4,9.41-4.88,15.44-9.93c5.21-4.36,6.76-12.33,5.56-17.6C96.09,45.93,85.09,44,84.98,43.99 c-1.92-0.25-7.92,1.7-9.02,2.7c-0.99,0.9-1.55,5.32-4.06,7.74C67.36,58.81,63.26,56.01,63.26,54.61z" fill="#BA8F63"/>
</svg>

<svg viewBox="0 0 128 128" xmlns="http://www.w3.org/2000/svg">
  <defs>
    <linearGradient id="hand_1_" gradientUnits="userSpaceOnUse" x1="35.4746" x2="-0.2643" y1="70.1994" y2="96.7244">
      <stop offset="0.1685" stop-color="#E0BB95"/>
      <stop offset="0.8723" stop-color="#CCA47A"/>
    </linearGradient>
    <linearGradient id="hand_2_" gradientTransform="matrix(-1 0 0 1 0 0)" gradientUnits="userSpaceOnUse" x1="-92.5254" x2="-128.2643" y1="70.1994" y2="96.7244">
      <stop offset="0.1685" stop-color="#E0BB95"/>
      <stop offset="0.8723" stop-color="#CCA47A"/>
    </linearGradient>
  </defs>
  <path id="hand" d="M3.23,104.13 C3.23,104.13 10.96,93.91 19.61,92.7 C28.26,91.49 41.63,93.91 46.56,96.05 C51.49,98.19 56.14,103.58 58.09,104.05 C60.04,104.52 62,102.75 62,102.75 C65.16,91.49 51.88,85.73 47.02,83.68 C22.75,73.45 27.45,56.39 29.07,52.7 C33.36,42.93 43.95,42.37 43.95,42.37 C43.95,42.37 50.79,42.42 53.29,46.51 C54.8,48.98 55.99,51.92 57.04,53.73 C58.43,56.11 64.11,56.98 64.11,53.77 C64.11,49.51 61.83,31.03 58.67,28.51 C55.51,25.99 44.28,17.61 41.34,18.56 C37.54,19.78 16.74,31.51 12.69,34.86 C8.64,38.21 3.23,45.68 3.23,45.68 L3.23,104.13 Z" fill="url(#hand_1_)"/>
  <path id="hand_5_" d="M124.77,104.13 C124.77,104.13 117.04,93.91 108.39,92.7 C99.74,91.49 86.37,93.91 81.44,96.05 C76.51,98.19 71.86,103.58 69.91,104.05 C67.96,104.52 66,102.75 66,102.75 C62.84,91.5 76.12,85.73 80.98,83.68 C105.26,73.45 100.55,56.39 98.93,52.7 C94.64,42.93 84.05,42.37 84.05,42.37 C84.05,42.37 77.21,42.42 74.71,46.51 C73.2,48.98 72.01,51.92 70.96,53.73 C69.57,56.11 63.89,56.98 63.89,53.77 C63.89,49.51 66.17,31.03 69.33,28.51 C72.49,26 83.72,17.61 86.66,18.56 C90.46,19.78 111.26,31.51 115.31,34.86 C119.36,38.21 124.78,45.67 124.78,45.67 L124.78,104.13 Z" fill="url(#hand_2_)"/>
  <path id="tone" d="M64.74,54.61 L64.75,45.41 C64.75,43.15 62.42,31.36 59.65,27.91 C57.87,25.71 53.08,22.67 48.32,19.76 C47.44,19.22 46.71,18.78 46.25,18.47 C43.99,16.99 41,17.08 37.37,18.74 C29.48,22.34 15.56,30.93 13.15,32.87 C9.07,36.15 6.08,40.4 3.23,44.55 L3.23,48.89 C6.57,44.77 11.29,38.21 15.03,35.2 C17.3,33.38 31.06,24.9 38.61,21.46 C41.25,20.26 43.26,20.1 44.61,20.97 C45.09,21.28 45.84,21.75 46.75,22.3 C49.88,24.22 55.71,27.79 57.31,29.78 C58.23,30.92 59.04,32.87 59.66,34.81 C58.33,33.85 56.48,32.58 54.66,31.32 C52.47,29.81 50.4,28.38 49.49,27.69 C44.51,23.93 38.57,25.66 36.25,26.58 C33.78,27.56 26.26,32.75 24.82,33.63 C22.41,35.11 20.92,37.02 20.83,37.48 C20.74,37.95 23.95,36.22 23.95,36.22 C24.07,36.15 34.34,30.55 37.36,29.36 C39.66,28.45 44.06,27.34 47.69,30.08 C48.65,30.81 50.75,32.25 52.96,33.78 C55.55,35.57 58.48,37.59 59.36,38.31 C60.35,39.12 61.44,39.52 61.95,43.66 L63.02,52.59 C63.02,54.31 61.09,54.45 60.46,54.23 C56.65,52.87 56.45,49.76 56.01,48.37 C55.52,46.84 55.06,45.4 54.11,44.49 C52.29,42.75 45.31,40.63 42.62,40.99 C39.23,41.45 29.02,45.1 26.66,55.51 C25.23,61.81 27.03,70.89 33.22,76.08 C39.5,81.34 44.65,84.01 49.2,86.37 L50.53,87.06 C54.24,88.95 58.44,91.1 60.73,96.61 C61.45,98.33 61.55,100.73 60.35,101.99 C59.87,102.49 58.96,102.52 58.41,102.05 C52.49,97.08 42.64,90.54 25.58,91.13 C22.11,91.25 15.6,92.09 10.15,86.98 C9.17,86.06 8.36,85.11 7.85,84.48 C7.66,84.25 7.28,84.36 7.27,84.66 C7.09,88.2 11.9,92.45 14.25,92.89 C9.36,95.34 5.35,99.48 3.24,101.95 L3.24,106.49 C6.44,102.74 13.88,94.85 20.46,94 C22.42,94.17 24.24,94.17 25.69,94.12 C41.74,93.59 50.95,99.69 56.49,104.34 C57.31,105.03 58.34,105.37 59.37,105.37 C60.54,105.37 61.7,104.93 62.53,104.06 C64.73,101.76 64.61,98.08 63.51,95.45 C60.79,88.93 55.65,86.3 51.9,84.39 L50.59,83.71 C45.96,81.31 41.18,78.83 35.15,73.78 C29.94,69.42 28.39,61.45 29.59,56.18 C31.91,45.93 42.91,44 43.02,43.99 C44.94,43.74 50.94,45.69 52.04,46.69 C53.03,47.59 53.59,52.01 56.1,54.43 C60.64,58.81 64.74,56.01 64.74,54.61 Z" fill="#BA8F63"/>
  <path id="tone_9_" d="M63.26,54.61 L63.25,45.41 C63.25,43.15 65.58,31.36 68.35,27.91 C70.13,25.71 74.92,22.67 79.68,19.76 C80.56,19.22 81.29,18.78 81.75,18.47 C84.01,16.99 87,17.08 90.63,18.74 C98.52,22.34 112.44,30.93 114.85,32.87 C118.93,36.15 121.92,40.4 124.77,44.55 L124.77,48.89 C121.43,44.77 116.71,38.21 112.97,35.2 C110.7,33.38 96.94,24.9 89.39,21.46 C86.75,20.26 84.74,20.1 83.39,20.97 C82.91,21.28 82.16,21.75 81.25,22.3 C78.12,24.22 72.29,27.79 70.69,29.78 C69.77,30.92 68.96,32.87 68.34,34.81 C69.67,33.85 71.52,32.58 73.34,31.32 C75.53,29.81 77.6,28.38 78.51,27.69 C83.49,23.93 89.43,25.66 91.75,26.58 C94.22,27.56 101.74,32.75 103.18,33.63 C105.59,35.11 107.08,37.02 107.17,37.48 C107.26,37.95 104.05,36.22 104.05,36.22 C103.93,36.15 93.66,30.55 90.64,29.36 C88.34,28.45 83.94,27.34 80.31,30.08 C79.35,30.81 77.25,32.25 75.04,33.78 C72.45,35.57 69.52,37.59 68.64,38.31 C67.65,39.12 66.56,39.52 66.05,43.66 L64.98,52.59 C64.98,54.31 66.91,54.45 67.54,54.23 C71.35,52.87 71.55,49.76 71.99,48.37 C72.48,46.84 72.94,45.4 73.89,44.49 C75.71,42.75 82.69,40.63 85.38,40.99 C88.77,41.45 98.98,45.1 101.34,55.51 C102.77,61.81 100.97,70.89 94.78,76.08 C88.5,81.34 83.35,84.01 78.8,86.37 L77.47,87.06 C73.76,88.95 69.56,91.1 67.27,96.61 C66.55,98.33 66.45,100.73 67.65,101.99 C68.13,102.49 69.04,102.52 69.59,102.05 C75.51,97.08 85.36,90.54 102.42,91.13 C105.89,91.25 112.4,92.09 117.85,86.98 C118.83,86.06 119.64,85.11 120.15,84.48 C120.34,84.25 120.72,84.36 120.73,84.66 C120.91,88.2 116.1,92.45 113.75,92.89 C118.64,95.34 122.65,99.48 124.76,101.95 L124.76,106.49 C121.56,102.74 114.12,94.85 107.54,94 C105.58,94.17 103.76,94.17 102.31,94.12 C86.26,93.59 77.05,99.69 71.51,104.34 C70.69,105.03 69.66,105.37 68.63,105.37 C67.46,105.37 66.3,104.93 65.47,104.06 C63.27,101.76 63.39,98.08 64.49,95.45 C67.21,88.93 72.35,86.3 76.1,84.39 L77.41,83.71 C82.04,81.31 86.82,78.83 92.85,73.78 C98.06,69.42 99.61,61.45 98.41,56.18 C96.09,45.93 85.09,44 84.98,43.99 C83.06,43.74 77.06,45.69 75.96,46.69 C74.97,47.59 74.41,52.01 71.9,54.43 C67.36,58.81 63.26,56.01 63.26,54.61 Z" fill="#BA8F63"/>
</svg>
